!!!!SEGMENT: pl-kk--kk-i-141_anonim--cudelis-herodes.krn
!!!cenid: 17xx:2658
!!!COM: Anonim
!!!COM-rismID: pe30004985
!!!CDT:
!!!CNT:
!!!OTL: Cudelis Herodes
!!!PDT:
!!!AGN: Sacred; Hymns
!!!YEC: Copyright 2022 Narodowy Instytut Fryderyka Chopina (https://polishscores.org)
!!!YEM: License CC-BY-4.0 (https://creativecommons.org/licenses/by/4.0)
!!!SMS-siglum: PL-Kk
!!!SMS-shelfmark: Kk.I.141
!!!SMS-variant:
!!!SMS-altvar:
!!!SMS-shelfwork: W
!!!NIFC-rismSourceID: 1001150565
!!!NIFC-rismChildID: 1001150565
!!!NIFC-islandoraID: pl-kk:3593
!!!URL-pdf-islandora: https://repozytorium.nifc.pl/islandora/object/pl-kk%3A3593/datastream/PDF/view
!!!URL-scan: https://polish.musicsources.pl/pl/lokalizacje/galeria/rekopisy/5769/1 @EN{Scan on Polish Music Sources Website} @PL{Skany w portalu Dziedzictwo Muzyki Polskiej w otwartym dostępie}
!!!IIIF:
!!!ONB-nifc: UWAGA: z uwzględnieniem partii B rip.
!!!AIN: 1 alto 1 bass 1 canto 1 organ 1 tenor
!!!key:
**kern	**fba	**text	**kern	**text	**kern	**text	**kern	**text	**dynam	**kern	**text
*part5	*	*part5	*part4	*part4	*part3	*part3	*part2	*part2	*part2	*part1	*part1
*staff5	*	*staff5	*staff4	*staff4	*staff3	*staff3	*staff2	*staff2	*	*staff1	*staff1
*I"Baſso Ripieno	*	*	*I"Baſso.	*	*I"Tenore	*	*I"Alto.	*	*	*I"Canto	*
*I'B.	*	*	*I'B.	*	*I'T.	*	*I'A.	*	*	*I'C.	*
*Iorgan	*	*	*Ibass	*	*Itenor	*	*Ialto	*	*	*Icanto	*
*ICklav	*	*	*ICvox	*	*ICvox	*	*ICvox	*	*	*ICvox	*
*clefF4	*	*	*clefF4	*	*clefC4	*	*clefC3	*	*	*clefC1	*
*k[b-]	*	*	*k[b-]	*	*k[b-]	*	*k[b-]	*	*	*k[b-]	*
*g:	*	*	*g:	*	*g:	*	*g:	*	*	*g:	*
*M3/2	*	*	*M3/2	*	*M3/2	*	*M3/2	*	*	*M3/2	*
=1	=1	=1	=1	=1	=1	=1	=1	=1	=1	=1	=1
!	!	!	!LO:TX:a:t=Pro Epiphania D(omi)ni	!	!	!	!	!	!	!	!
2r	.	.	2r	.	2r	.	2r	.	.	2r	.
2r	.	.	2r	.	2r	.	2r	.	.	2r	.
*2\right	*	*	*2\right	*	*2\right	*	*2\right	*	*	*2\right	*
2G\	-	Cru-	2G\	Cru-	2B-\	Cru-	4g\	Cru-	.	2dd\	Cru-
.	.	.	.	.	.	.	4f\	.	.	.	.
=2	=2	=2	=2	=2	=2	=2	=2	=2	=2	=2	=2
2G\	6 4 2	-de-	2G\	-de-	2A/	-de-	2en\	-de-	.	2cc\	-de-
2G\	.	-lis	2G\	-lis	2A/	-lis	2e\	-lis	.	2cc,\	-lis
2F#X\	6	He-	2F#X\	He-	2A/	He-	2f#X\	He-	.	2dd\	He-
=3	=3	=3	=3	=3	=3	=3	=3	=3	=3	=3	=3
2G\	.	-ro-	2G\	-ro-	2G/	-ro-	2d\	-ro-	.	2b-X\	-ro-
2G,\	.	-des	2G,\	-des	2G,/	-des	2B-/	.	.	2g,/	-des
*	*	*ij	*	*	*	*ij	*	*	*	*	*ij
2G\	.	He-	2G\	He-	2G/	He-	[2d\	-des	.	2b-\	He-
=4	=4	=4	=4	=4	=4	=4	=4	=4	=4	=4	=4
2Fn\	6	-ro-	2Fn\	-ro-	2A\	-ro-	2d\]	.	.	2a\	-ro-
2E-X,\	7	-des	2E-X,\	-des	2.B-,\	-des	2d/	De-	.	2.g,/	-des
*	*	*Xij	*	*	*	*	*	*	*	*	*Xij
2E-\	6	DE-	2E-\	De-	.	.	2c/	.	.	.	.
*	*	*	*	*	*	*Xij	*	*	*	*	*
.	.	.	.	.	4c\	De-	.	.	.	8a/L	De-
.	.	.	.	.	.	.	.	.	.	8g/J	.
=5	=5	=5	=5	=5	=5	=5	=5	=5	=5	=5	=5
1.D,	#	-UM	1.D,	-um	1.A	-um	1.d,	-um	.	1.f#X,	-um
=6	=6	=6	=6	=6	=6	=6	=6	=6	=6	=6	=6
2D\	.	Re-	2D\	Re-	2d\	Re-	2f#X\	Re-	.	2a\	Re-
2G,\	.	-gem	2G\	-gem	2d\	-gem	2g\	-gem	.	2b-X\	-gem
2F\	.	ve-	2Fn\	ve-	2A\	ve-	2g\	ve-	.	2cc\	ve-
=7	=7	=7	=7	=7	=7	=7	=7	=7	=7	=7	=7
1B-	.	-ni-	1B-	-ni-	1B-	-ni-	1fn	-ni-	.	(2dd\	-ni-
.	.	.	.	.	.	.	.	.	.	2b-\)	.
2A\	.	-re	2A\	-re	2c\	-re	[2f\	-re	.	[2ff\	-re
=8	=8	=8	=8	=8	=8	=8	=8	=8	=8	=8	=8
1G	.	quid	1G	quid	2.d\	quid	2f\]	.	.	2ff,\]	.
.	.	.	.	.	.	.	2f\	quid	.	2.b-\	quid
.	.	.	.	.	4c\	.	.	.	.	.	.
2G\	6	ti-	2G\	ti-	2B-\	ti-	2e\	ti-	.	.	.
.	.	.	.	.	.	.	.	.	.	4b-\	ti-
=9	=9	=9	=9	=9	=9	=9	=9	=9	=9	=9	=9
1.F,	.	-mes?	1.F	-mes?	1.A,	-mes?	1.f,	-mes.	.	1.cc,	-mes?
=10	=10	=10	=10	=10	=10	=10	=10	=10	=10	=10	=10
2F\	.	non	2F\	non	2A\	non	2a\	non	.	2cc\	Non
2.En\	.	e-	2.En\	e-	2.cn\	e-	2.g\	e-	.	2.cc\	e-
4E\	.	-ri-	4E\	-ri-	4c\	-ri-	4g\	-ri-	.	4b-\	-ri-
*	*	*	*	*	*custos:c	*	*custos:f	*	*	*	*
!	!	!	!LO:LB:g=original	!	!LO:LB:g=original	!	!LO:LB:g=original	!	!	!LO:LB:g=original	!
=11	=11	=11	=11	=11	=11	=11	=11	=11	=11	=11	=11
2.F\	.	-pit	2.F\	-pit	1c	-pit	1f,	-pit	.	1a,	-pit
4E\yy	.	.	4E\	.	.	.	.	.	.	.	.
4D\	.	.	4D/	.	2d\	mor-	2f\	mor-	.	2b-\	mor-
4C\	.	.	4C/	.	.	.	.	.	.	.	.
!LO:LB:g=original	!	!	!	!	!	!	!	!	!	!	!
=12	=12	=12	=12	=12	=12	=12	=12	=12	=12	=12	=12
2BB-/	.	mor-	2BB-/	mor-	2d\	-ta-	1f	-ta-	.	1g	-ta-
2.C/	.	-ta-	2.C/	-ta-	2.c\	-li-	.	.	.	.	.
.	.	.	.	.	.	.	2e\	-li-	.	2g/	-li-
4C/	.	-li-	4C/	-li-	4B-\	.	.	.	.	.	.
=13	=13	=13	=13	=13	=13	=13	=13	=13	=13	=13	=13
1FF,	.	-a	1FF,	-a	1A,	-a	1f,	-a,	.	1f,	-a
2F\	.	qui	2F\	qui	2A/	Qui	2f\	Qui	.	2cc\	Qui
=14	=14	=14	=14	=14	=14	=14	=14	=14	=14	=14	=14
2.F\	4 2	re-	2.F\	re-	2.Bn\	re-	2.g\	re-	.	2.dd\	re-
4F\	.	-gna	4F\	-gna	4B\	-gna	4g\	-gna	.	4dd\	-gna
2E\	6	dat	2E\	dat	2c#X\	dat	2g\	dat	.	2een\	dat
=15	=15	=15	=15	=15	=15	=15	=15	=15	=15	=15	=15
2D/	.	cae-	2D/	cae-	2d\	cae-	2a\	cae-	.	2ff\	cae-
2A\	.	-les-	2A\	-les-	2.d\	-les-	2.a\	-les-	.	2.ee\	-les-
2AA/	.	-ti-	2AA/	-ti-	.	.	.	.	.	.	.
.	.	.	.	.	4c#X\	-ti-	4e\	-ti-	.	4ee\	-ti-
=16	=16	=16	=16	=16	=16	=16	=16	=16	=16	=16	=16
1D,	.	-a	1D,	-a	1d,	-a	1f#X,	-a:	.	1dd,	-a
2G\	.	qui	2G\	qui	2B-X\	Qui	2g\	Qui	.	2dd\	Qui
=17	=17	=17	=17	=17	=17	=17	=17	=17	=17	=17	=17
2.D/	.	re-	2.D/	re-	2.A\	re-	2a\	re-	.	2.f#X/	re-
.	.	.	.	.	.	.	4g\	-gna	.	.	.
4D/	.	-gna	4D/	-gna	4B-\	-gna	4f\	.	.	4g/	-gna
2C/	.	dat	2C/	dat	2c\	dat	2e\	dat	.	2a\	dat
=18	=18	=18	=18	=18	=18	=18	=18	=18	=18	=18	=18
2BB-/	.	cae-	2BB-/	cae-	2d\	cae-	2g\	cae-	.	2b-\	cae-
2.D\	.	-leſ-	2.D/	-leſ-	2.d\	-les-	2.g\	-les-	.	2.a\	-les-
4D\	.	-ti-	4D/	-ti-	4d\	-ti-	4f#X\	-ti-	.	4a\	-ti-
=19	=19	=19	=19	=19	=19	=19	=19	=19	=19	=19	=19
0.GG;	.	-a	0.GG;	-a	0.d;	-a.	0.g	-a	.	0.bn;	-a
=20||	=20||	=20||	=20||	=20||	=20||	=20||	=20||	=20||	=20||	=20||	=20||
*M3/2	*	*	*M3/2	*	*M3/2	*	*M3/2	*	*	*M3/2	*
1.r	.	.	1.r	.	2r	.	0.r	.	.	00.r	.
.	.	.	.	.	(4G/	I-	.	.	.	.	.
.	.	.	.	.	4A/)	.	.	.	.	.	.
.	.	.	.	.	(4B-/	-bant.	.	.	.	.	.
.	.	.	.	.	4G/)	.	.	.	.	.	.
=21	=21	=21	=21	=21	=21	=21	=21	=21	=21	=21	=21
2r	.	.	2r	.	2d\	Ma-	.	.	.	.	.
(4D\	.	I-	(4D\	I-	2A,/	-gi	.	.	.	.	.
4E\	.	.	4E\)	.	.	.	.	.	.	.	.
*	*	*	*	*	*	*ij	*	*	*	*	*
4Fn\	.	.	(4Fn\	.	4d\	I-	.	.	.	.	.
4D\)	.	.	4D\)	.	4c\	-bant	.	.	.	.	.
=22	=22	=22	=22	=22	=22	=22	=22	=22	=22	=22	=22
2G\	.	.	2G\	.	2B-\	Ma-	1.r	.	.	.	.
2D,\	.	-bant	2D,\	-bant	2B-,\	-gi	.	.	.	.	.
*	*	*ij	*	*ij	*	*Xij	*	*	*	*	*
!	!	!	!	!	!LO:LB:g=original	!	!	!	!	!	!
4G\	.	I-	4G\	I-	2B-\	I-	.	.	.	.	.
4G\	.	-bant	4G\	-bant	.	.	.	.	.	.	.
*	*	*Xij	*	*Xij	*	*	*custos:d	*	*	*	*
!	!	!	!	!	!	!	!LO:LB:g=original	!	!	!	!
=23	=23	=23	=23	=23	=23	=23	=23	=23	=23	=23	=23
2Fn\	.	Ma-	2Fn\	i-	1A,	-bant	2r	.	.	.	.
!	!	!	!	!	!	!	!	!	!LO:DY:a:t=For.	!	!
2F,\	.	-gi	2F\	-bant	.	.	4d\	I-	f	.	.
.	.	.	.	.	.	.	4e\	.	.	.	.
*	*	*	*custos:F	*	*	*	*	*	*	*	*
!	!	!	!LO:LB:g=original	!	!	!	!	!	!	!	!
2F\	.	quam	2F\	Ma-	2A/	Ma-	4fn\	.	.	.	.
.	.	.	.	.	.	.	4d\	.	.	.	.
*custos:E	*	*	*	*	*	*	*	*	*	*	*
!LO:LB:g=original	!	!	!	!	!	!	!	!	!	!	!
=24	=24	=24	=24	=24	=24	=24	=24	=24	=24	=24	=24
1E-X	.	vi-	1E-X,	-gi	1G,	-gi	2g\	.	.	2r	.
.	.	.	.	.	.	.	2e-X,\	-bant	.	(4a\	I-
.	.	.	.	.	.	.	.	.	.	4b-\)	.
*	*	*	*	*	*	*	*	*ij	*	*	*
2E-\	.	-de-	2E-\	quam	2G/	quam	4g\	I-	.	(4cc\	-bant
.	.	.	.	.	.	.	4g\	-bant	.	4a\)	.
*	*	*	*	*	*	*	*	*Xij	*	*custos:a	*
!	!	!	!	!	!	!	!	!	!	!LO:LB:g=original	!
=25	=25	=25	=25	=25	=25	=25	=25	=25	=25	=25	=25
1D,	.	-rant	1D	.	1A	vi-	2f\	Ma-	.	2a\	Ma-
.	.	.	.	.	.	.	2f,\	-gi	.	2a,\	-gi
2D/	.	quam	2D/	vi-	[2B-\	.	2f\	quam	.	2dd\	quam
=26	=26	=26	=26	=26	=26	=26	=26	=26	=26	=26	=26
1C	.	vi-	1C	.	1B-]	.	1e-X	vi-	.	(2.ee-X\	vi-
.	.	.	.	.	.	.	.	.	.	4dd\)	.
2C/	.	-de-	2C/	-de-	2A\	-de-	2e-\	-de-	.	2cc\	-de-
=27	=27	=27	=27	=27	=27	=27	=27	=27	=27	=27	=27
2.BB-,/	.	-rant	2.BB-,/	-rant	1.B-	-rant	1.d	-rant	.	2.dd,\	-rant
4BB-/	.	Stel-	4BB-/	Stel-	.	.	.	.	.	4cc\	Stel-
4D/	.	-lam	4D/	-lam	.	.	.	.	.	4b-\	-lam
4E/	.	se-	4E/	se-	.	.	.	.	.	4b-\	se-
=28	=28	=28	=28	=28	=28	=28	=28	=28	=28	=28	=28
1.F	.	-quen-	1.F	-quen-	2r	.	2r	.	.	(2.a\	-quen-
.	.	.	.	.	2F/	ſtel-	2A/	Stel-	.	.	.
.	.	.	.	.	.	.	.	.	.	4b-\)	.
.	.	.	.	.	4A/	-lam	4c/	lam	.	2cc\	.
.	.	.	.	.	4B-/	se-	4d/	se-	.	.	.
=29	=29	=29	=29	=29	=29	=29	=29	=29	=29	=29	=29
2.C,/	.	-tes	2.C,/	-tes	1.c	-quen-	1.e-X	-quen-	.	2.cc,\	-tes,
*	*	*ij	*	*	*	*	*	*	*	*	*
4C/	.	Stel-	4C/	Stel-	.	.	.	.	.	4cc\	Stel-
4E-X\	.	lam	4E-X/	lam	.	.	.	.	.	4b-\	-lam
4F\	.	se-	4F/	se-	.	.	.	.	.	4a\	se-
=30	=30	=30	=30	=30	=30	=30	=30	=30	=30	=30	=30
1.G	.	-quen-	1.G	-quen-	2.B-X,\	-tes	2.d,\	-tes	.	(1g	-quen-
*	*	*	*	*	*	*ij	*	*	*	*	*
.	.	.	.	.	4G/	ſtel-	4B-/	Stel-	.	.	.
.	.	.	.	.	4B-\	-lam	4d\	-lam	.	2b-\)	.
.	.	.	.	.	4c\	se-	4e\	se-	.	.	.
=31	=31	=31	=31	=31	=31	=31	=31	=31	=31	=31	=31
2.F,\	.	-tes	2.F,\	-tes	1.d	-quen-	1.f	-quen-	.	2.a,\	-tes
*	*	*Xij	*	*	*	*	*	*	*	*	*
4F\	.	Stel-	4F\	Stel-	.	.	.	.	.	4a\	Stel-
4F\	.	-lam	4F\	-la(m)	.	.	.	.	.	4a\	-lam
4G\	.	se-	4G\	se-	.	.	.	.	.	4bn\	se-
=32	=32	=32	=32	=32	=32	=32	=32	=32	=32	=32	=32
!	!	!	!	!	!	!	!LO:TX:t=P:problem:♮above	!	!	!	!
(2.A\	.	-quen-	2.A\	-quen-	2.c#X,\	-tes	(2.e\	-tes	.	(2cc#X\	-quen-
.	.	.	.	.	.	.	.	.	.	2a\)	.
*	*	*	*	*	*	*Xij	*	*	*	*	*
8G\L	.	.	8G\L	.	4d\	se-	4f\	.	.	.	.
8F\J	.	.	8F\J	.	.	.	.	.	.	.	.
2En\)	.	.	2En\	.	2en\	-quen-	2g\)	.	.	(2b-\	-tes
=33	=33	=33	=33	=33	=33	=33	=33	=33	=33	=33	=33
2F,\	.	-tes	2F,\	-tes	2d,\	-tes	2f\	.	.	2a\)	.
2.A\	.	prae-	2.A\	prae-	2.d\	prae-	2.e\	prae-	.	2a\	prae-
.	.	.	.	.	.	.	.	.	.	2a\	-vi-
4AA/	.	-vi-	4AA/	-vi-	4c#X\	-vi-	4e\	-vi-	.	.	.
=34	=34	=34	=34	=34	=34	=34	=34	=34	=34	=34	=34
!	!	!	!	!	!	!	!LO:TX:t=P:problem:#above	!	!	!	!
1.D,	.	-am:	1.D,	-am:	1.d,	-am	1.f,	-am	.	1.a,	-am
!	!	!	!	!	!LO:LB:g=original	!	!LO:LB:g=original	!	!	!LO:LB:g=original	!
=35	=35	=35	=35	=35	=35	=35	=35	=35	=35	=35	=35
2D\	.	Lu-	2D\	lu-	2d\	Lu-	1.r	.	.	0.r	.
4En,\	.	-men	4En,\	-men	4G,/	-men	.	.	.	.	.
4G\	.	re-	4G\	re-	4B-/	re-	.	.	.	.	.
(4G\	.	-qui-	(4G\	-qui-	2A/	-qui-	.	.	.	.	.
4F#X\)	.	.	4F#X\)	.	.	.	.	.	.	.	.
!LO:LB:g=original	!	!	!LO:LB:g=original	!	!	!	!	!	!	!	!
=36	=36	=36	=36	=36	=36	=36	=36	=36	=36	=36	=36
4G,\	.	-runt	4G,\	-runt	4G,/	-runt	2g\	Lu-	.	.	.
*	*	*	*	*	*	*ij	*	*	*	*	*
4G\	.	re-	4G\	re-	4G/	re-	.	.	.	.	.
4Fn\	.	-qui-	4Fn\	-qui-	4A\	-qui-	4c\	-men	.	.	.
4C/	.	-runt	4C/	-runt	4c,\	-runt	4e-X\	re-	.	.	.
*	*	*	*	*	*	*Xij	*	*	*	*	*
4.G\	.	Lu-	4.G\	Lu-	4.c\	lu-	2d\	-qui-	.	.	.
8GG/	.	-mi-	8GG/	-mi-	8Bn\	-mi-	.	.	.	.	.
=37	=37	=37	=37	=37	=37	=37	=37	=37	=37	=37	=37
4C,/	.	-ne	4C,/	-ne	4c,\	-ne	4c\	-runt	.	1.r	.
*	*	*ij	*	*	*	*	*	*ij	*	*	*
4C/	.	re-	4C/	re-	4c\	re-	4en\	re-	.	.	.
4BB-X/	.	-qui-	4BB-X/	-qui-	4d\	-qui-	4f\	-qui-	.	.	.
4AA/	.	-runt	4AA/	-runt	4f\	-runt	4a\	-runt	.	.	.
*	*	*	*	*	*	*	*	*Xij	*	*	*
4.C/	.	lu-	4.C/	lu-	4.f\	lu-	4.g\	lu-	.	.	.
8C/	.	-mi-	8C/	-mi-	8e\	-mi-	8g\	-mi-	.	.	.
=38	=38	=38	=38	=38	=38	=38	=38	=38	=38	=38	=38
4FF/	.	-ne	4FF/	-ne	4f,\	-ne	4f,\	-ne	.	4r	.
*	*	*Xij	*	*ij	*	*ij	*	*	*	*	*
4F\	.	re-	4F\	re-	4A/	re-	4a\	lu-	.	4a\	Lu-
4G\	.	-qui-	4G\	-qui-	4B-\	-qui-	4d\	-men	.	4b-,\	-men
4E\	.	-runt	4E\	-runt	4d\	-runt	4f\	re-	.	4b-\	re-
4.A\	.	lu-	4.A\	lu-	4.d\	lu-	2e\	-qui-	.	2a\	-qui-
8AA/	.	-mi-	8AA/	-mi-	8c#X\	-mi-	.	.	.	.	.
=39	=39	=39	=39	=39	=39	=39	=39	=39	=39	=39	=39
4D,/	.	-ne	4D,/	-ne	4d,\	-ne	4d\	-runt	.	4a,\	-runt
*	*	*ij	*	*Xij	*	*Xij	*	*ij	*	*	*
4D/	.	re-	4D/	re-	4d\	re-	4d\	re-	.	4b-\	/re-
4Cn/	.	-qui-	4Cn/	-qui-	4G/	-qui-	4e\	-qui-	.	4cc\	-qui-
4BB-/	.	-runt	4BB-/	-runt	4B-/	-runt	4g\	-runt	.	4dd\	-runt/
*	*	*	*	*	*	*	*	*Xij	*	*	*
4.D/	.	lu-	4.D/	lu-	4.A/	lu-	4.g\	lu-	.	4.dd\	lu-
8D/	.	-mi-	8D/	-mi-	8A/	-mi-	8f#X\	-mi-	.	8dd\	-mi-
=40	=40	=40	=40	=40	=40	=40	=40	=40	=40	=40	=40
1.GG	.	-ne	1.GG	-ne	1.Bn	-ne	1.g,	-ne	.	1.dd,	-ne,
*	*	*Xij	*	*	*	*	*	*	*	*	*
=41	=41	=41	=41	=41	=41	=41	=41	=41	=41	=41	=41
2BBn/	.	De-	2BBn/	De-	1.r	.	2g\	De-	.	2dd\	De-
2BB/	.	-um	2BB/	-um	.	.	2g\	-um	.	2dd\	-um
2BB/	.	fa-	2BB/	fa-	.	.	2fn\	fa-	.	2dd\	fa-
=42	=42	=42	=42	=42	=42	=42	=42	=42	=42	=42	=42
1C	.	-ten-	1C	-ten-	2c\	De-	1e	-ten-	.	2ccn\	-ten-
.	.	.	.	.	2c\	-um	.	.	.	2cc\	-tur
2C/	.	-tur	2C/	-tur	2B-X\	fa-	2e\	-t(ur)	.	2r	.
!	!	!	!	!	!LO:LB:g=original	!	!	!	!	!	!
=43	=43	=43	=43	=43	=43	=43	=43	=43	=43	=43	=43
*	*	*ij	*	*ij	*	*	*	*ij	*	*	*ij
2C#X/	.	De-	2C#X/	De-	1A	-ten-	2a\	De-	.	2een\	De-
2C#/	.	-um	2C#/	-um	.	.	2a\	-um	.	2ee\	-um
2C#/	.	fa-	2C#/	fa-	2A/	-tur	2g\	fa-	.	2ee\	fa-
=44	=44	=44	=44	=44	=44	=44	=44	=44	=44	=44	=44
1D	.	-ten-	1D	-ten-	2d\	De-	1f#X	-ten-	.	2dd\	-ten-
.	.	.	.	.	2d\	-um	.	.	.	2dd\	-tur
2D\	.	-tur	2D\	-tur	2c\	fa-	2f#\	-tur	.	2r	.
*	*	*Xij	*	*Xij	*	*	*	*Xij	*	*	*Xij
!LO:LB:g=original	!	!	!LO:LB:g=original	!	!	!	!	!	!	!	!
=45	=45	=45	=45	=45	=45	=45	=45	=45	=45	=45	=45
2E-X\	.	De-	2E-X\	De-	2B-\	-ten-	2g\	De-	.	2b-X\	De-
2E-\	.	-um	2E-\	-um	2B-,\	-t(ur)	2g\	-um	.	2b-\	-um
2BBn/	.	fa-	2BBn/	fa-	2d\	fa-	2fn\	fa-	.	2dd\	fa-
*	*	*	*	*	*	*	*custos:e	*	*	*	*
!	!	!	!	!	!	!	!LO:LB:g=original	!	!	!	!
=46	=46	=46	=46	=46	=46	=46	=46	=46	=46	=46	=46
2C/	.	-ten-	2C/	-ten-	2.c\	-ten-	2.e-X\	-ten-	.	2cc\	-ten-
2C,/	.	-tur	2C,/	-tur	.	.	.	.	.	2g,/	-t(ur)
.	.	.	.	.	4B-\	.	4d\	.	.	.	.
2C/	.	fa-	2C/	fa-	4A/	.	4c/	.	.	2g/	fa-
.	.	.	.	.	4G/	.	4B-/	.	.	.	.
!	!	!	!	!	!	!	!	!	!	!LO:LB:g=original	!
=47	=47	=47	=47	=47	=47	=47	=47	=47	=47	=47	=47
1D	.	-ten-	1D	-ten-	1F#X	.	1A	.	.	(2f#X/	-ten-
.	.	.	.	.	.	.	.	.	.	2d/)	.
2C/	.	-tur	2C/	-t(ur)	2G/	-tur	2c/	-tur	.	2e-X/	-tur
=48	=48	=48	=48	=48	=48	=48	=48	=48	=48	=48	=48
1D	.	mu-	1D	mu-	1G	mu-	2B-/	mu-	.	1d	mu-
.	.	.	.	.	.	.	2.A/	.	.	.	.
2D\	.	-ne-	2D\	-ne-	2F#X/	-ne-	.	.	.	2d/	-ne-
.	.	.	.	.	.	.	4A/	-ne-	.	.	.
=49	=49	=49	=49	=49	=49	=49	=49	=49	=49	=49	=49
0.GG;	.	-re	0.GG	-re	0.G;	-re.	0.Bn	-re	.	0.d;	-re
=50||	=50||	=50||	=50||	=50||	=50||	=50||	=50||	=50||	=50||	=50||	=50||
*M3/2	*	*	*M3/2	*	*M3/2	*	*M3/2	*	*	*M3/2	*
2G\	.	La-	2G\	La-	2B-\	La-	2d\	La-	.	2b-\	La-
2G\	.	-va-	2G\	-va-	2B-\	-va-	2d\	-va-	.	2b-\	-va-
2D/	.	-cra	2D/	-cra	2A/	-cra	2f\	-cra	.	2dd\	-cra
=51	=51	=51	=51	=51	=51	=51	=51	=51	=51	=51	=51
1E-X	.	pu-	1E-X	pu-	(2G/	pu-	1e-X	.	.	1b-	pue-
.	.	.	.	.	2A/)	.	.	.	.	.	.
2BB-/	.	-ri	2BB-/	-ri	2B-\	-ri	4d\	pu-	.	2b-\	-ri
.	.	.	.	.	.	.	4e-\	-ri	.	.	.
=52	=52	=52	=52	=52	=52	=52	=52	=52	=52	=52	=52
2.F\	.	gur-	2.F\	gur-	2.A/	gur-	2.f\	gur-	.	2.cc\	gur-
4F\	.	-gi-	4F\	-gi-	4A/	-gi-	4f\	-gi-	.	4cc\	-gi-
2F,\	.	-tis,	2F\	-tis	2A/	-tis	2f,\	-tis	.	2cc,\	-tis
=53	=53	=53	=53	=53	=53	=53	=53	=53	=53	=53	=53
2D\	.	cae-	2D\	cae-	2B-\	cae-	2f\	Cae-	.	2dd\	Cae-
(4E-X\	.	-le-	(4E-X\	-le-	(4G/	-le-	2.e-X\	-les-	.	2cc\	-les-
4D\	.	.	4D\	.	4F/	.	.	.	.	.	.
4E-\	.	.	4E-\	.	4G/	.	.	.	.	2cc\	-tis
4F\)	.	.	4F\)	.	4A/)	.	4e-\	-tis	.	.	.
!	!	!	!	!	!LO:LB:g=original	!	!	!	!	!	!
=54	=54	=54	=54	=54	=54	=54	=54	=54	=54	=54	=54
2.G\	.	.	2.G\	.	(4B-\	-stis	2.d\	.	.	1b-	a-
.	.	.	.	.	4A\	.	.	.	.	.	.
.	.	.	.	.	4B-\	.	.	.	.	.	.
4A,\	.	-stis	4A,\	-stis	4c,\)	.	4c/	A-	.	.	.
2B-\	.	A-	2B-\	A-	2d\	A-	2B-/	-gnus	.	2b-\	-gn(us)
*	*	*	*custos:E	*	*	*	*	*	*	*	*
!	!	!	!LO:LB:g=original	!	!	!	!	!	!	!	!
=55	=55	=55	=55	=55	=55	=55	=55	=55	=55	=55	=55
2E-X,\	.	-gnus	2E-X\	-gnus	2c,\	-gn(us)	2e-X\	.	.	1b-	at-
2.F\	.	at-	2.F\	at-	2.c\	at-	2.c/	at-	.	.	.
.	.	.	.	.	.	.	.	.	.	2a\	-ti-
!LO:LB:g=original	!	!	!	!	!	!	!	!	!	!	!
4FF/yy	.	-ti-	4FF/	-ti-	4c\	-ti-	4c/	-ti-	.	.	.
*	*	*	*	*	*	*	*custos:d	*	*	*	*
!	!	!	!	!	!	!	!LO:LB:g=original	!	!	!	!
=56	=56	=56	=56	=56	=56	=56	=56	=56	=56	=56	=56
1BB-,	.	-git:	1BB-,	-git:	1B-,	-git:	1d,	-git	.	1b-,	-git
2B-\	.	pec-	2B-\	pec-	2d\	Pec-	2f\	pec-	.	2b-\	pec-
=57	=57	=57	=57	=57	=57	=57	=57	=57	=57	=57	=57
1An	.	-ca-	1An	-ca-	1c	-ca-	1f	-ca-	.	1cc	-ca-
2A\	.	-ta	2A\	-ta	2c\	-ta	2f\	-ta	.	2cc\	-ta
!	!	!	!	!	!	!	!	!	!	!LO:LB:g=original	!
=58	=58	=58	=58	=58	=58	=58	=58	=58	=58	=58	=58
1G	.	quae	1G	quae	1d	quae	1f	quae	.	1b-	quae
2c\	.	non	2c\	non	2c\	non	2en\	non	.	2g/	non
=59	=59	=59	=59	=59	=59	=59	=59	=59	=59	=59	=59
2.F\	.	de-	2.F\	de-	2.c\	de-	2.f\	de-	.	2.a\	de-
4F\	.	-tu-	4F\	-tu-	4c\	-tu-	4f\	-tu-	.	4a\	-tu-
2F,\	.	-lit	2F\	-lit	2c\	-lit,	2f\	-lit	.	4a,\	-lit
.	.	.	.	.	.	.	.	.	.	4a\	nos
=60	=60	=60	=60	=60	=60	=60	=60	=60	=60	=60	=60
2D\	.	nos	2D\	nos	4d\	Nos	2f\	nos	.	(4b-\	ab-
.	.	.	.	.	4c\	.	.	.	.	4cc\	.
(4E-X\	.	ab-	(4E-X\	ab-	2.B-\	ab-	(4g\	ab-	.	4b-\	.
4F\)	.	.	4F\)	.	.	.	4a\)	.	.	4a\)	.
(4E-\	.	-lu-	(4E-\	-lu-	.	.	(4g\	-lu-	.	2g/	-lu-
4D\)	.	.	4D\)	.	4B-\	-lu-	4f\)	.	.	.	.
=61	=61	=61	=61	=61	=61	=61	=61	=61	=61	=61	=61
1C	.	-en-	1C	-en-	(4c\	-en-	1e-X	-en-	.	1g	-en-
.	.	.	.	.	4B-\	.	.	.	.	.	.
.	.	.	.	.	4c\	.	.	.	.	.	.
.	.	.	.	.	4d\)	.	.	.	.	.	.
2C,/	.	-do	2C,/	-do	4c\	.	2e-\	-do	.	2g,/	-do
.	.	.	.	.	4B-\	.	.	.	.	.	.
=62	=62	=62	=62	=62	=62	=62	=62	=62	=62	=62	=62
2C/	.	nos	2C/	nos	2A/	.	2e-X\	nos	.	(4a\	ab-
.	.	.	.	.	.	.	.	.	.	4b-\	.
(4D\	.	ab-	4D\	ab-	2A,/	-do.	4f\	ab-	.	4a\	.
4E-X\)	.	.	4E-X\	.	.	.	4g\	.	.	4g\)	.
(4D\	.	-lu-	4D\	-lu-	4A/	ab-	4f\	-lu-	.	2f/	-lu-
4C\)	.	.	4C\	.	4A/	-lu-	4e-\	.	.	.	.
=63	=63	=63	=63	=63	=63	=63	=63	=63	=63	=63	=63
2BB-/	.	-en-	2BB-/	-en-	4B-\	-en-	2d\	-en-	.	4f/	-en-
.	.	.	.	.	4A\	.	.	.	.	4f,/	-do
2GG,/	.	-do	2GG,/	-do	4B-\	.	2d,\	-do	.	4b-\	ab-
.	.	.	.	.	4c\	.	.	.	.	4a\	-lu-
4G\	.	ab-	4G\	ab-	4B-\	.	4g\	ab-	.	[2g/	-en-
4G\	.	-lu-	4G\	-lu-	4A\	.	4f\	-lu-	.	.	.
=64	=64	=64	=64	=64	=64	=64	=64	=64	=64	=64	=64
!	!	!	!	!	!	!	!	!	!	!LO:N:xstem:cue	!
4C/	.	-en-	4C/	-en-	4G/	.	(4e-X\	-en-	.	4g/]	.
(4BB-/	.	.	(4BB-/	.	4G,/	-do	4d\	.	.	8a\L	.
.	.	.	.	.	.	.	.	.	.	8b-\J	.
4C/	.	.	4C/	.	4c\	ab-	4e-\	.	.	2cc\	.
4D/)	.	.	4D/)	.	4G\	-lu-	4f\)	.	.	.	.
2E-X\	.	.	2E-X\	.	2e-X\	-en-	[2g\	-do	.	[2b-\	-do
!	!	!	!	!	!LO:LB:g=original	!	!	!	!	!	!
=65	=65	=65	=65	=65	=65	=65	=65	=65	=65	=65	=65
2G,\	.	do	2GG/	do	2d,\	-do	2g\]	.	.	2b-\]	.
2.D/	.	suſ-	2.D/	suſ-	2.d\	suſ-	2.g\	suſ-	.	2.a\	sus-
4D/	.	-tu-	4D/	-tu-	4c\	-tu-	4f#X\	-tu-	.	4a\	-tu-
*	*	*	*custos:GG	*	*	*	*custos:g	*	*	*	*
!	!	!	!LO:LB:g=original	!	!	!	!LO:LB:g=original	!	!	!	!
=66	=66	=66	=66	=66	=66	=66	=66	=66	=66	=66	=66
1GG,	.	-lit.	1GG,	-lit.	1Bn,	-lit.	1g,	-lit	.	1g,	-lit.
2B-\	.	pec-	2B-\	pec-	2d\	pec-	2fn\	pec-	.	2b-\	pec-
!LO:LB:g=original	!	!	!	!	!	!	!	!	!	!	!
=67	=67	=67	=67	=67	=67	=67	=67	=67	=67	=67	=67
1An	.	-ca-	1An	-ca-	1c	-ca-	1f	-ca-	.	1cc	-ca-
2A\	.	-ta	2A\	-ta	2c\	-ta	2f\	-ta	.	2cc\	-ta
!	!	!	!	!	!	!	!	!	!	!LO:LB:g=original	!
=68	=68	=68	=68	=68	=68	=68	=68	=68	=68	=68	=68
1G	.	quae	1G	quae	1d	quae	1f	quae	.	1b-	quae
2c\	.	non	2c\	non	2c\	non	2en\	non	.	2g/	non
=69	=69	=69	=69	=69	=69	=69	=69	=69	=69	=69	=69
2.F\	.	de-	2.F\	de-	2.c\	de-	2.f\	de-	.	2.a\	de-
4F\	.	-tu-	4F\	-tu-	4c\	-tu-	4f\	-tu-	.	4a\	-tu-
2F,\	.	-lit	2F\	-lit	2c,\	-lit	2f\	-lit	.	4a,\	-lit
.	.	.	.	.	.	.	.	.	.	4a\	nos
=70	=70	=70	=70	=70	=70	=70	=70	=70	=70	=70	=70
2D\	.	nos	2D\	nos	4d\	nos	2f\	nos	.	(4b-\	ab-
.	.	.	.	.	4c\	ab-	.	.	.	4cc\	.
(4E-X\	.	ab-	(4E-X\	ab-	2.B-\	-lu-	(4g\	ab-	.	4b-\	.
4F\)	.	.	4F\)	.	.	.	4a\)	.	.	4a\)	.
(4E-\	.	-lu-	(4E-\	-lu-	.	.	(4g\	-lu-	.	2g/	-lu-
4D\)	.	.	4D\)	.	4B-\	-en-	4f\)	.	.	.	.
=71	=71	=71	=71	=71	=71	=71	=71	=71	=71	=71	=71
1C	.	-en-	1C	-en-	(4c\	.	1e-X	-en-	.	1g	-en-
.	.	.	.	.	4B-\	.	.	.	.	.	.
.	.	.	.	.	4c\	.	.	.	.	.	.
.	.	.	.	.	4d\	.	.	.	.	.	.
2C,/	.	-do	2C,/	-do	4c\	.	2e-\	-do	.	2g,/	-do
.	.	.	.	.	4B-\)	.	.	.	.	.	.
=72	=72	=72	=72	=72	=72	=72	=72	=72	=72	=72	=72
*	*	*	*	*ij	*	*	*	*ij	*	*	*
2C/	.	/nos	2C/	nos	2A/	.	2e-X\	nos	.	(4a\	ab-
.	.	.	.	.	.	.	.	.	.	4b-\	.
4D\	.	ab-	(4D\	ab-	2A,/	-do	(4f\	ab-	.	4a\	.
4E-X\	.	.	4E-X\)	.	.	.	4g\)	.	.	4g\)	.
4D\	.	-lu-	(4D\	-lu-	4A/	ab-	(4f\	-lu-	.	2f/	-lu-
4C\	.	.	4C\)	.	4A/	-lu-	4e-\)	.	.	.	.
=73	=73	=73	=73	=73	=73	=73	=73	=73	=73	=73	=73
2BB-/	.	-en-	2BB-/	-en-	(4B-\	-en-	2d\	-en-	.	4f/	-en-
.	.	.	.	.	4A\	.	.	.	.	4f,/	-do
2GG,/	.	-do/	2GG,/	-do	4B-\	.	2d,\	-do	.	4b-\	ab-
.	.	.	.	.	4c\	.	.	.	.	4a\	-lu-
*	*	*	*	*Xij	*	*	*	*Xij	*	*	*
4G\	.	ab-	4G\	ab-	4B-\	.	4g\	ab-	.	[2g/	-en-
4G\	.	-lu-	4G\	-lu-	4A\)	.	4f\	-lu-	.	.	.
=74	=74	=74	=74	=74	=74	=74	=74	=74	=74	=74	=74
!	!	!	!	!	!	!	!	!	!	!LO:N:xstem:cue	!
4C/	.	-en-	4C/	-en-	4G/	.	(4e-X\	-en-	.	4g/]	.
4BB-/	.	.	(4BB-/	.	4G,/	-do	4d\	.	.	8a\L	.
.	.	.	.	.	.	.	.	.	.	8b-\J	.
4C/	.	.	4C/	.	4c\	ab-	4e-\	.	.	2cc\	.
4D/	.	.	4D/)	.	4G/	-lu-	4f\)	.	.	.	.
2E-X\	.	-do.	2E-X\	-do.	2e-X\	-en-	[2g\	-do	.	[2b-\	-do
=75	=75	=75	=75	=75	=75	=75	=75	=75	=75	=75	=75
2G\	.	sus-	2GG/	sus-	2d,\	-do	2g\]	.	.	2b-,\]	.
2.D\	.	.	2.D\	.	2.d\	suſ-	2.g\	suſ-	.	2.a\	sus-
4D\	.	-tu-	4D\	-tu-	4c\	-tu-	4f#X\	-tu-	.	4a\	-tu-
=76	=76	=76	=76	=76	=76	=76	=76	=76	=76	=76	=76
0.GG;	.	-lit.	0.GG;	-lit.	0.Bn;	-lit.	0.g;	-lit	.	0.bn;	-lit.
!LO:PB:g=original	!	!	!LO:PB:g=original	!	!LO:PB:g=original	!	!LO:PB:g=original	!	!	!LO:PB:g=original	!
=77||	=77||	=77||	=77||	=77||	=77||	=77||	=77||	=77||	=77||	=77||	=77||
*M3/2	*	*	*M3/2	*	*M3/2	*	*M3/2	*	*	*M3/2	*
1G	.	No-	1G	No-	1B-	No-	(2d\	No-	.	1dd	No-
.	.	.	.	.	.	.	2e-X\)	.	.	.	.
2Fn\	.	-vum	2Fn\	-vum	2A/	-vum	2f\	-vum	.	4dd\	-vum
.	.	.	.	.	.	.	.	.	.	4cc\	.
=78	=78	=78	=78	=78	=78	=78	=78	=78	=78	=78	=78
(4.E-X\	.	ge-	(4.E-X\	ge-	2G/	ge-	2g\	ge-	.	2b-\	ge-
8F\)	.	.	8F\)	.	.	.	.	.	.	.	.
(4.G\	.	-nus	(4.G\	-nus	2G/	-nus	2g,\	-nus	.	2b-,\	-nus
8A\)	.	.	8A\)	.	.	.	.	.	.	.	.
2B-\	.	po-	2B-\	po-	2F/	po-	2f\	po-	.	2b-\	po-
=79	=79	=79	=79	=79	=79	=79	=79	=79	=79	=79	=79
1B-	.	-ten-	1B-	-ten-	1G	-ten-	1e-X	-ten-	.	1cc	-ten-
2A\	.	-ti-	2A\	-ti-	2A\	-ti-	2e-\	-ti-	.	2cc\	-ti-
=80	=80	=80	=80	=80	=80	=80	=80	=80	=80	=80	=80
1B-,	.	-ae!	1B-,	-ae!	1F,	-ae	1d,	-ae!	.	1dd,	-ae
2B-\	.	a-	2B-\	a-	2B-/	a-	2f\	a-	.	2dd\	a-
=81	=81	=81	=81	=81	=81	=81	=81	=81	=81	=81	=81
2.F\	.	-quae	2.F\	-quae	2.A/	-quae	2.f\	-quae	.	2.cc\	-quae
4E-X\	.	ru-	4E-X\	ru-	4G/	ru-	4g\	ru-	.	(8dd\L	ru-
.	.	.	.	.	.	.	.	.	.	8ee\J)	.
2D/	.	-beſ-	2D/	-beſ-	2F/	-bes-	2f\	-bes-	.	2ff\	-bes-
=82	=82	=82	=82	=82	=82	=82	=82	=82	=82	=82	=82
2C/	.	-cunt	2C,/	-cunt	2G/	-cunt	2e-X,\	-cunt	.	2cc,\	-cunt
2G\	.	hy-	2G\	hy-	2.G/	hy-	2.d\	hy-	.	2.cc\	hy-
2GG/	.	-dri-	2GG/	-dri-	.	.	.	.	.	.	.
.	.	.	.	.	4G/	-dri-	4d\	-dri-	.	4bn\	-dri-
=83	=83	=83	=83	=83	=83	=83	=83	=83	=83	=83	=83
1C,	.	-ae,	1C,	-ae,	1G,	-ae	1.en,	-ae	.	1.cc,	-ae
2C/	.	Vi-	2C/	Vi-	2G/	Vi-	.	.	.	.	.
=84	=84	=84	=84	=84	=84	=84	=84	=84	=84	=84	=84
(2.F\	.	-num	(2.F\	-num	(2.A\	-num	2r	.	.	2r	.
.	.	.	.	.	.	.	2r	.	.	2r	.
4G\)	.	.	4G\)	.	4B-\)	.	.	.	.	.	.
(4F\	.	que	(4F\	que	(4A\	que	2c/	Vi-	.	2a\	Vi-
4E\)	.	.	4E\)	.	4G\)	.	.	.	.	.	.
=85	=85	=85	=85	=85	=85	=85	=85	=85	=85	=85	=85
2D/	.	juſ-	2D/	juſ-	2F/	juſ-	(2.f\	-num	.	(2.b-\	-num-
2D,/	.	-sa	2D,/	-sa	2F,/	-sa	.	.	.	.	.
.	.	.	.	.	.	.	4g\)	.	.	4cc\)	.
2D/	.	/Vi-	2D/	Vi-	2F/	Vi-	(4f\	que	.	(4b-\	-que
.	.	.	.	.	.	.	4e\)	.	.	4a\)	.
=86	=86	=86	=86	=86	=86	=86	=86	=86	=86	=86	=86
2.G\	.	-num	(2.G\	-num	(2.B-\	-num	2d\	juſ-	.	2g/	juſ-
.	.	.	.	.	.	.	2d,\	-sa	.	2g,/	-sa
4At\	.	.	4A\)	.	4c\)	.	.	.	.	.	.
(4G\	.	que	(4G\	que	(4B-\	que	2d\	Vi-	.	2g/	Vi-
4F\)	.	.	4F\)	.	4A\)	.	.	.	.	.	.
*	*	*	*custos:E	*	*	*	*	*	*	*	*
!	!	!	!LO:LB:g=original	!	!	!	!	!	!	!	!
=87	=87	=87	=87	=87	=87	=87	=87	=87	=87	=87	=87
1E-X	.	juſ-	1E-X	juſ-	2.G/	juſ-	2.g\	-num-	.	1b-	-num-
.	.	.	.	.	4A/	.	4g\	-quae	.	.	.
2D/	.	-sa/	2D\	-sa	2B-/	-sa	2f\	juſ-	.	2b-\	-q(ue)
*custos:E	*	*	*	*	*	*	*	*	*	*	*
!LO:LB:g=original	!	!	!	!	!	!	!LO:LB:g=original	!	!	!	!
=88	=88	=88	=88	=88	=88	=88	=88	=88	=88	=88	=88
2E-X\	.	fun-	2E-X\	fun-	2B-\	fun-	2g,\	-sa	.	4ee\	juſ-
.	.	.	.	.	.	.	.	.	.	4dd\	-sa
2.F\	.	-de-	2.F\	-de-	2.B-\	-de-	2.f\	fun-	.	2.ccT\	fun-
4FF/	.	.	4FF/	.	4A\	.	4f\	-de-	.	4cc\	-de-
!	!	!	!	!	!LO:LB:g=original	!	!	!	!	!LO:LB:g=original	!
=89	=89	=89	=89	=89	=89	=89	=89	=89	=89	=89	=89
1BB-,	.	-re:	1BB-,	-re:	4B-,\	-re,	4f,\	-re	.	1dd,	-re,
.	.	.	.	.	4B-\	mu-	4f\	mu-	.	.	.
.	.	.	.	.	4F/	.	(4d\	-ta-	.	.	.
.	.	.	.	.	4E/	-ta-	4c\	.	.	.	.
2BB-/	.	mu-	2BB-/	mu-	4F/	.	4d\	.	.	2dd\	mu-
.	.	.	.	.	4G/	.	4e\)	.	.	.	.
=90	=90	=90	=90	=90	=90	=90	=90	=90	=90	=90	=90
4FF/	.	-ta-	4FF/	-ta-	2A\	-vit	2f\	.	.	2cc\	-ta-
4GG/	.	.	4GG/	.	.	.	.	.	.	.	.
4AA/	.	.	4AA/	.	2A,\	.	2f,\	-vit	.	2cc,\	-vit
4FF/	.	.	4FF/	.	.	.	.	.	.	.	.
*	*	*	*	*	*	*	*	*	*	*	*ij
4AA/	.	.	4AA/	.	2A\	mu-	2f\	mu-	.	2cc\	mu-
4BB-/	.	.	4BB-/	.	.	.	.	.	.	.	.
=91	=91	=91	=91	=91	=91	=91	=91	=91	=91	=91	=91
2C/	.	.	2C/	.	4G/	-ta-	(4en\	-ta-	.	2cc\	-ta-
.	.	.	.	.	4F/	.	4d\	.	.	.	.
2C,/	.	-vit	2C,/	-vit	4E/	.	4c\	.	.	2cc,\	-vit
.	.	.	.	.	4F/	.	4d\	.	.	.	.
*	*	*	*	*	*	*	*	*	*	*	*Xij
2C/	.	mu-	2C/	mu-	4G/	.	4e\	.	.	2cc\	mu-
.	.	.	.	.	4A/	.	4f\)	.	.	.	.
=92	=92	=92	=92	=92	=92	=92	=92	=92	=92	=92	=92
4GG/	.	-ta-	4GG/	-ta-	2B-\	.	2g\	.	.	2b-\	-ta-
4AA/	.	.	4AA/	.	.	.	.	.	.	.	.
4BB-/	.	.	4BB-/	.	2B-,\	-vit	2g,\	-vit	.	2b-,\	-vit
4GG/	.	.	4GG/	.	.	.	.	.	.	.	.
*	*	*	*	*	*	*ij	*	*	*	*	*ij
4BB-/	.	.	4BB-/	.	2B-\	mu-	2g\	mu-	.	2b-\	mu-
4C/	.	.	4C/	.	.	.	.	.	.	.	.
=93	=93	=93	=93	=93	=93	=93	=93	=93	=93	=93	=93
1D	.	.	1D	.	1A	-ta-	(4d\	-ta-	.	1dd	-ta-
.	.	.	.	.	.	.	4e\	.	.	.	.
.	.	.	.	.	.	.	4f\	.	.	.	.
.	.	.	.	.	.	.	4d\	.	.	.	.
2D,\	.	-vit,	2D,\	-vit,	2A/	-vit	4f\	.	.	2dd\	-vit
.	.	.	.	.	.	.	4g\)	.	.	.	.
*	*	*	*	*	*	*Xij	*	*	*	*	*Xij
=94	=94	=94	=94	=94	=94	=94	=94	=94	=94	=94	=94
2D\	.	mu-	2D/	mu-	2F/	mu-	2a\	.	.	2dd\	un-
2D\	.	-ta-	2D/	-ta-	2G/	-ta-	2d\	-vit	.	2dd\	-da
2C/	.	-vit	2C/	-vit	2A/	-vit	2r	.	.	2r	.
=95	=95	=95	=95	=95	=95	=95	=95	=95	=95	=95	=95
1BB-	.	un-	1BB-	un-	1B-	un-	2d\	mu-	.	2b-\	mu-
.	.	.	.	.	.	.	2f\	-ta-	.	2dd\	-ta-
2BB-,/	.	-da	2BB-,/	-da,	2A\	-da	2f\	-vit	.	2dd\	-vit
=96	=96	=96	=96	=96	=96	=96	=96	=96	=96	=96	=96
*	*	*ij	*	*	*	*ij	*	*	*	*	*
2E-X\	.	mu-	2E-X\	mu-	2G/	mu-	2g\	un-	.	2b-X\	un-
2E-\	.	-ta-	2E-\	-ta-	2A/	-ta-	2e-X,\	-da	.	2b-\	-da
2D/	.	-vit	2D/	-vit	2B-/	-vit	2r	.	.	2r	.
=97	=97	=97	=97	=97	=97	=97	=97	=97	=97	=97	=97
2C/	.	un-	2C/	un-	2c\	un-	2g\	un-	.	2ee-X\	Un-
2C,/	.	-da	2C,/	-da	2G,/	-da	2g,\	-da	.	2ee-\	-da
*	*	*Xij	*	*	*	*Xij	*	*	*	*	*
2BB-/	.	o-	2BB-/	o-	2B-\	o-	2g\	o-	.	2dd\	o-
*	*	*	*custos:D	*	*	*	*	*	*	*	*
!	!	!	!LO:LB:g=original	!	!	!	!	!	!	!	!
=98	=98	=98	=98	=98	=98	=98	=98	=98	=98	=98	=98
1D	.	-ri-	1D	-ri-	1A	-ri-	1g	-ri-	.	1dd	-ri-
2D\	.	-gi-	2D\	-gi-	2A\	-gi-	2f#X\	-gi-	.	2dd\	-gi-
=99	=99	=99	=99	=99	=99	=99	=99	=99	=99	=99	=99
!	!	!	!	!	!	!	!	!	!	!LO:N:vis=0.	!
0.GG;	.	-nem	0.GG	-nem	0.Bn;	-nem.	0.g	-nem	.	0.dd	-nem
!LO:PB:g=original	!	!	!	!	!LO:LB:g=original	!	!LO:LB:g=original	!	!	!LO:LB:g=original	!
=100||	=100||	=100||	=100||	=100||	=100||	=100||	=100||	=100||	=100||	=100||	=100||
*M3/2	*	*	*M3/2	*	*M3/2	*	*M3/2	*	*	*M3/2	*
1G	.	Je-	1G	Je-	1B-	Je-	1g	JE-	.	(2.b-\	Je-
.	.	.	.	.	.	.	.	.	.	4cc\	.
2D/	.	-su	2D\	-su	2A/	-su	2f#X\	-SU	.	2dd\)	.
=101	=101	=101	=101	=101	=101	=101	=101	=101	=101	=101	=101
2.E-X\	.	Ti-	2.E-X\	Ti-	2.G/	Ti-	(2.g\	Ti-	.	2g/	-su
.	.	.	.	.	.	.	.	.	.	2g/	Ti-
4D\	.	-bi-	4D/	-bi-	8A\L	.	4f\	.	.	.	.
.	.	.	.	.	8B-\J	.	.	.	.	.	.
2C/	.	-sit	2C/	-sit	2c\	-bi-	2e-X\)	-bi	.	2cc\	-bi
=102	=102	=102	=102	=102	=102	=102	=102	=102	=102	=102	=102
2BB-/	.	glo-	2BB-/	glo-	2G/	-ſit	2g\	sit	.	2b-\	sit
2.D/	.	.	2.D/	.	2.A/	Glo-	2.g\	glo-	.	2.a\	glo-
4D/	.	-ri-	4D/	-ri-	4A/	-ri-	4f#X\	-ri-	.	4a\	-ri-
=103	=103	=103	=103	=103	=103	=103	=103	=103	=103	=103	=103
1GG,	.	-a	1GG,	-a	1B-,	-a!	1g,	-a	.	1g,	-a
2D/	.	Qui	2D/	Qui	2A\	Qui	(4fn\	Qui	.	2a\	Qui
.	.	.	.	.	.	.	4e\)	.	.	.	.
=104	=104	=104	=104	=104	=104	=104	=104	=104	=104	=104	=104
2G\	.	ap-	2G\	ap-	2B-\	ap-	2d\	ap-	.	2b-\	ap-
2G\	.	-pa-	2G\	-pa-	2B-\	-pa-	2e-X\	-pa-	.	2b-\	-pa-
2F\	.	-ru-	2F\	-ru-	2A\	-ru-	2f\	-ru-	.	2cc\	-ru-
=105	=105	=105	=105	=105	=105	=105	=105	=105	=105	=105	=105
2.BB-/	.	-i-	(2.BB-/	-i-	1.B-	-i-	(2.f\	-i-	.	2.dd\	-i-
4C/	.	.	4C/)	.	.	.	4e-X\)	.	.	4cc\	.
2D/	.	-sti	2D\	-sti	.	.	2d\	-sti	.	2b-\	-sti
=106	=106	=106	=106	=106	=106	=106	=106	=106	=106	=106	=106
2E-X\	.	Gen-	2E-X\	Gen-	2B-,\	-ſti	2g\	Gen-	.	4ee-X\	Gen-
.	.	.	.	.	.	.	.	.	.	4dd\	.
2.F\	.	.	2.F\	.	2B-\	Gen-	2.f\	.	.	2.cc\	.
.	.	.	.	.	2A\	-ti-	.	.	.	.	.
4FF/	.	-ti-	4FF/	-ti-	.	.	4f\	-ti-	.	4cc\	-ti-
=107	=107	=107	=107	=107	=107	=107	=107	=107	=107	=107	=107
1BB-,	.	-bus:	1BB-,	-bus:	1B-,	-b(us):	1f,	-bus:	.	1dd,	-bus.
2G\	.	Cum	2G\	Cum	2B-\	Cum	2g\	Cum	.	2dd\	Cum
=108	=108	=108	=108	=108	=108	=108	=108	=108	=108	=108	=108
2A\	.	Pa-	2A\	Pa-	2A/	Pa-	2en\	Pa-	.	2cc#X\	Pa-
2A\	.	-tre	2A\	-tre	2A/	-tre	2e,\	-tre	.	2cc#\	-tre
2F#X\	.	et	2F#X\	et	2A/	et	2a\	et	.	2dd\	et
*	*	*	*custos:G	*	*	*	*	*	*	*	*
!	!	!	!LO:LB:g=original	!	!	!	!	!	!	!	!
=109	=109	=109	=109	=109	=109	=109	=109	=109	=109	=109	=109
2.G\	.	al-	2.G\	al-	4B-\	al-	2d\	al-	.	1dd	al-
.	.	.	.	.	4c\	.	.	.	.	.	.
.	.	.	.	.	4B-\	.	(4en\	.	.	.	.
4F\	.	.	4F\	.	4A\	.	4f\)	.	.	.	.
2En\	.	.	2En\	.	2G/	.	2g\	.	.	2cc#X\	-mo
*	*	*	*	*	*	*	*	*	*	*custos:dd	*
!	!	!	!	!	!	!	!LO:LB:g=original	!	!	!LO:LB:g=original	!
=110	=110	=110	=110	=110	=110	=110	=110	=110	=110	=110	=110
2F,\	.	-mo	2F,\	-mo	2A,/	-mo	2f,\	-mo	.	2.dd\	Spi-
2A\	.	Spi-	2.A\	Spi-	2.A/	Spi-	2.en\	Spi-	.	.	.
.	.	.	.	.	.	.	.	.	.	4dd\	-ri-
2AA/	.	ri-	.	.	.	.	.	.	.	2cc#X,\	-tu
.	.	.	4AA/	-ri-	4A/	-ri-	4e\	-ri-	.	.	.
!LO:LB:g=original	!	!	!	!	!LO:LB:g=original	!	!	!	!	!	!
=111	=111	=111	=111	=111	=111	=111	=111	=111	=111	=111	=111
1.D,	.	-tu	1.D	-tu	4A,/	-tu,	4fn,\	-tu	.	2a\	in
.	.	.	.	.	4A/	in	(8f\L	in	.	.	.
.	.	.	.	.	.	.	8g\J)	.	.	.	.
.	.	.	.	.	2A/	ſem-	(4an\	sem-	.	2a\	sem-
.	.	.	.	.	.	.	4f\)	.	.	.	.
.	.	.	.	.	2A/	-pi-	4g\	-pi-	.	2a\	-pi-
.	.	.	.	.	.	.	4a\	.	.	.	.
=112	=112	=112	=112	=112	=112	=112	=112	=112	=112	=112	=112
(4GG/	.	in	(4GG/	in	2.B-\	-ter-	1g	-ter-	.	1b-X	-ter-
4AA/)	.	.	4AA/)	.	.	.	.	.	.	.	.
(4BB-/	.	sem-	(4BB-/	sem-	.	.	.	.	.	.	.
4GG/)	.	.	4GG/)	.	4A/	.	.	.	.	.	.
(4AA/	.	-pi-	(4AA/	-pi-	2G/	-na	2g\	-na	.	2b-,\	-na
4BB-/)	.	.	4BB-/)	.	.	.	.	.	.	.	.
=113	=113	=113	=113	=113	=113	=113	=113	=113	=113	=113	=113
1C	.	-ter-	1C	-ter-	(4c\	in	(4en\	in	.	2cc\	in
.	.	.	.	.	4d\)	.	4f\)	.	.	.	.
.	.	.	.	.	(4en\	ſem-	(4g\	sem-	.	2cc\	Sem-
.	.	.	.	.	4c\)	.	4e\)	.	.	.	.
2C,/	.	-na	2C,/	-na	(4d\	-pi-	(4f\	-pi-	.	2cc\	-pi-
.	.	.	.	.	4e\)	.	4g\)	.	.	.	.
=114	=114	=114	=114	=114	=114	=114	=114	=114	=114	=114	=114
*	*	*	*	*ij	*	*	*	*	*	*	*
(4FF/	.	/in	(4FF/	in	2f\	-ter-	2a\	-ter-	.	1cc	-ter-
4GG/)	.	.	4GG/)	.	.	.	.	.	.	.	.
(4AA/	.	sem-	(4AA/	sem-	2f,\	-na	2a,\	-na	.	.	.
4FF/)	.	.	4FF/)	.	.	.	.	.	.	.	.
(4GG/	.	-pi-	(4GG/	-pi-	2f\	in	2a\	in	.	2cc,\	-na
4AA/)	.	.	4AA/)	.	.	.	.	.	.	.	.
=115	=115	=115	=115	=115	=115	=115	=115	=115	=115	=115	=115
*	*	*	*	*	*	*	*	*	*	*	*ij
1BB-	.	-ter-	1BB-	-ter-	(4B-X\	sem-	4d\	sem-	.	2dd\	in
.	.	.	.	.	4c\)	.	4e-X\	.	.	.	.
.	.	.	.	.	(4d\	-pi-	4f\	.	.	2dd\	Sem-
.	.	.	.	.	4B-\)	.	(4d\	-pi-	.	.	.
2BB-,/	.	-na/	2BB-,/	-na	(4c\	-ter-	4e-\	.	.	2dd\	-pi-
.	.	.	.	.	4d\)	.	4f\)	.	.	.	.
*	*	*	*	*Xij	*	*	*	*	*	*	*
=116	=116	=116	=116	=116	=116	=116	=116	=116	=116	=116	=116
2E-X\	.	in	2E-X\	in	2B-\	.	2g\	-ter-	.	(4b-\	-ter-
.	.	.	.	.	.	.	.	.	.	4a\	.
2E-\	.	Sem-	2E-\	Sem-	2B-,\	-na	2g,\	-na	.	4b-\	.
.	.	.	.	.	.	.	.	.	.	4cc\)	.
2D/	.	-pi-	2D\	-pi-	4d\	sem-	4f\	sem-	.	2dd\	-na
.	.	.	.	.	4d\	-pi-	4f\	-pi-	.	.	.
*	*	*	*	*	*	*	*	*	*	*	*Xij
=117	=117	=117	=117	=117	=117	=117	=117	=117	=117	=117	=117
2.C/	.	-ter-	2.C/	-ter-	2G/	-ter-	(4e-X\	-ter-	.	(1g	sae-
.	.	.	.	.	.	.	4d\	.	.	.	.
.	.	.	.	.	4e-X\	.	4e-\	.	.	.	.
4D\	.	.	4D\	.	4d\	.	4f\)	.	.	.	.
4E-X\	.	.	4E-X\	.	2c\	.	4g\	.	.	2cc\)	.
4F\	.	.	4F\	.	.	.	4a\	.	.	.	.
=118	=118	=118	=118	=118	=118	=118	=118	=118	=118	=118	=118
2G,\	.	-na	2G,\	-na	(4B-\	-na	4b-\	-na	.	2b-\	.
.	.	.	.	.	4c\)	.	4g,\	.	.	.	.
2.D/	.	sae-	2.D\	sae-	2.d\	sae-	2g\	sae-	.	2.a\	-cu-
.	.	.	.	.	.	.	2f#X\	-cu-	.	.	.
4D/	.	-cu-	4D\	-cu-	4d\	-cu-	.	.	.	4a\	-la
=119	=119	=119	=119	=119	=119	=119	=119	=119	=119	=119	=119
1GG,	.	-la	1GG,	-la	1d,	-la.	1g,	-la	.	1bn,	.
*	*	*	*custos:G	*	*	*	*	*	*	*	*
!	!	!	!LO:LB:g=original	!	!	!	!LO:LB:g=original	!	!	!	!
2G\	.	Cum	2G\	Cum	2B-\	Cum	2g\	Cum	.	2dd\	Cum
*	*	*	*	*	*custos:A	*	*	*	*	*	*
!	!	!	!	!	!LO:LB:g=original	!	!	!	!	!	!
=120	=120	=120	=120	=120	=120	=120	=120	=120	=120	=120	=120
2A\	.	Pa-	2A\	Pa-	2A\	Pa-	2en\	Pa-	.	2cc#X\	pa-
2A\	.	-tre	2A\	-tre	2A\	-tre	2e,\	-tre	.	2cc#\	-tre
2F#X\	.	et	2F#X\	et	2A\	et	2a\	et	.	2dd\	et
!LO:LB:g=original	!	!	!	!	!	!	!	!	!	!LO:LB:g=original	!
=121	=121	=121	=121	=121	=121	=121	=121	=121	=121	=121	=121
(2.G\	.	al-	2.G\	al-	4B-\	al-	(2d\	al-	.	1dd	al-
.	.	.	.	.	4c\	.	.	.	.	.	.
.	.	.	.	.	4B-\	.	4en\	.	.	.	.
4F\	.	.	4F\	.	4A\	.	4f\)	.	.	.	.
2En\)	.	.	2En\	.	2G/	.	2g\	.	.	2cc#X\	-mo
=122	=122	=122	=122	=122	=122	=122	=122	=122	=122	=122	=122
2F,\	.	-mo	2F,\	-mo	2A,\	-mo	2f\	-mo	.	2.dd\	Spi-
2A\	.	Spi-	2.A\	Spi-	2.A\	Spi-	2.en\	Spi-	.	.	.
.	.	.	.	.	.	.	.	.	.	4dd\	-ri-
2AA/	.	ri-	.	.	.	.	.	.	.	2cc#X\	-tu
.	.	.	4AA/	-ri-	4A\	-ri-	4e\	-ri-	.	.	.
=123	=123	=123	=123	=123	=123	=123	=123	=123	=123	=123	=123
1.D,	.	-tu	1.D,	-tu	4A,\	-tu	4fn,\	-tu	.	2a\	in
.	.	.	.	.	4A\	in	8f\L	in	.	.	.
.	.	.	.	.	.	.	8g\J	.	.	.	.
.	.	.	.	.	2A\	ſem-	(4an\	ſem-	.	2a\	Sem-
.	.	.	.	.	.	.	4f\)	.	.	.	.
.	.	.	.	.	2A\	-pi-	(4g\	-pi-	.	2a\	-pi-
.	.	.	.	.	.	.	4a\)	.	.	.	.
=124	=124	=124	=124	=124	=124	=124	=124	=124	=124	=124	=124
(4GG/	.	in	(4GG/	in	2.B-\	-ter-	1g	-ter-	.	1b-X	-ter-
4AA/)	.	.	4AA/)	.	.	.	.	.	.	.	.
(4BB-/	.	sem-	(4BB-/	sem-	.	.	.	.	.	.	.
4GG/)	.	.	4GG/)	.	4A\	.	.	.	.	.	.
(4AA/	.	-pi-	(4AA/	-pi-	2G/	-na	2g\	-na	.	2b-,\	-na
4BB-/)	.	.	4BB-/)	.	.	.	.	.	.	.	.
=125	=125	=125	=125	=125	=125	=125	=125	=125	=125	=125	=125
*	*	*	*	*	*	*	*	*	*	*	*ij
1C	.	-ter-	1C	-ter-	(4c\	in	(4en\	in	.	2cc\	in
.	.	.	.	.	4d\)	.	4f\)	.	.	.	.
.	.	.	.	.	4en\	sem-	(4g\	sem-	.	2cc\	Sem-
.	.	.	.	.	4c\	.	4e\)	.	.	.	.
2C,/	.	-na	2C,/	-na	(4d\	-pi-	(4f\	-pi-	.	2cc\	-pi-
.	.	.	.	.	4e\)	.	4g\)	.	.	.	.
=126	=126	=126	=126	=126	=126	=126	=126	=126	=126	=126	=126
*	*	*ij	*	*ij	*	*	*	*	*	*	*
(4FF/	.	in	(4FF/	in	2f\	-ter-	2a\	-ter-	.	1cc	-ter-
4GG/)	.	.	4GG/)	.	.	.	.	.	.	.	.
(4AA/	.	sem-	(4AA/	sem-	2f,\	-na	2a,\	-na	.	.	.
4FF/)	.	.	4FF/)	.	.	.	.	.	.	.	.
(4GG/	.	-pi-	(4GG/	-pi-	2f\	in	2a\	in	.	2cc\	-na
4AA/)	.	.	4AA/)	.	.	.	.	.	.	.	.
*	*	*	*	*	*	*	*	*	*	*	*Xij
=127	=127	=127	=127	=127	=127	=127	=127	=127	=127	=127	=127
1BB-	.	-ter-	1BB-	-ter-	(4B-X\	sem-	(4d\	sem-	.	2dd\	in
.	.	.	.	.	4c\)	.	4e-X\	.	.	.	.
.	.	.	.	.	(4d\	-pi-	4f\)	.	.	2dd\	Sem-
.	.	.	.	.	4B-\)	.	4d\	.	.	.	.
2BB-,/	.	-na	2BB-,/	-na	(4c\	-ter-	(4e-X\	-pi-	.	2dd\	-pi-
.	.	.	.	.	4d\)	.	4f\)	.	.	.	.
*	*	*Xij	*	*Xij	*	*	*	*	*	*	*
=128	=128	=128	=128	=128	=128	=128	=128	=128	=128	=128	=128
2E-X\	.	in	2E-X\	in	2B-\	.	2g\	-ter-	.	(4b-\	-ter-
.	.	.	.	.	.	.	.	.	.	4a\	.
2E-\	.	ſem-	2E-\	sem-	2B-\	-na	2g\	-na	.	4b-\	.
*	*	*	*	*	*custos:d	*	*custos:f	*	*	*	*
.	.	.	.	.	.	.	.	.	.	4cc\)	.
!	!	!	!	!	!LO:LB:g=original	!	!LO:LB:g=original	!	!	!	!
2D\	.	-pi-	2D\	-pi-	4d\	sem-	4f\	sem-	.	2dd\	-na
.	.	.	.	.	4d\	-pi-	4f\	-pi-	.	.	.
=129	=129	=129	=129	=129	=129	=129	=129	=129	=129	=129	=129
2.C/	.	-ter-	2.C/	-ter-	2G/	-ter-	(4e-X\	-ter-	.	(1g	sae-
.	.	.	.	.	.	.	4d\	.	.	.	.
.	.	.	.	.	4e-X\	.	4e-\	.	.	.	.
4D\	.	.	4D\	.	4d\	.	4f\)	.	.	.	.
4E-X\	.	.	4E-X\	.	2c\	.	4g\	.	.	2cc\)	.
4F\	.	.	4F\	.	.	.	4a\	.	.	.	.
*	*	*	*custos:G	*	*	*	*	*	*	*	*
!	!	!	!LO:LB:g=original	!	!	!	!	!	!	!	!
=130	=130	=130	=130	=130	=130	=130	=130	=130	=130	=130	=130
2G\	.	-na	2G,\	-na	4B-\	-na	4b-\	-na	.	2b-\	.
.	.	.	.	.	4c\	.	4g\	.	.	.	.
2.D\	.	Sae-	2.D/	Sae-	2.d\	Sae-	2g\	sae-	.	2.a\	.
.	.	.	.	.	.	.	2f#X\	-cu-	.	.	.
4D\	.	-cu-	4D/	-cu-	4d\	-cu-	.	.	.	4a\	-cu-
=131	=131	=131	=131	=131	=131	=131	=131	=131	=131	=131	=131
!	!	!	!	!	!	!	!	!	!	!LO:N:vis=0.	!
1.GG	.	-la	1.GG	-la	1.d;	-la	1.g	-la	.	1.bn;	-la.
!LO:LB:g=original	!	!	!	!	!	!	!	!	!	!LO:LB:g=original	!
=132||	=132||	=132||	=132||	=132||	=132||	=132||	=132||	=132||	=132||	=132||	=132||
*M3/2	*	*	*M3/2	*	*M3/2	*	*M3/2	*	*	*M3/2	*
4.G\	.	a-	4.G\	a-	1.r	.	1.r	.	.	4.b-X\	A-
8A\	.	.	8A\	.	.	.	.	.	.	8cc\	.
4B-\	.	.	4B-\	.	.	.	.	.	.	4dd\	.
4G\	.	.	4G\	.	.	.	.	.	.	4b-\	.
4Fn\	.	.	4Fn\	.	.	.	.	.	.	4a\	.
4E\	.	.	4E\	.	.	.	.	.	.	4g\	.
=133	=133	=133	=133	=133	=133	=133	=133	=133	=133	=133	=133
1D	.	.	1D	.	4.F/	a-	4.d\	a-	.	1a	.
.	.	.	.	.	8G/	.	8e\	.	.	.	.
.	.	.	.	.	4A/	.	4f\	.	.	.	.
.	.	.	.	.	4F/	.	4d\	.	.	.	.
2D,/	.	-men	2D,/	-men	4B-\	.	(4f\	.	.	2a\	-men
.	.	.	.	.	4c\	.	8g\L)	.	.	.	.
.	.	.	.	.	.	.	8a\J	.	.	.	.
=134	=134	=134	=134	=134	=134	=134	=134	=134	=134	=134	=134
4.BB-/	.	a-	4.BB-/	a-	1d	-men	2.b-\	.	.	4.dd\	a-
8C/	.	.	8C/	.	.	.	.	.	.	8ee\	.
4D/	.	.	4D/	.	.	.	.	.	.	4ff\	.
4BB-/	.	.	4BB-/	.	.	.	8a\L	.	.	4dd\	.
.	.	.	.	.	.	.	8g\J	.	.	.	.
4D/	.	.	4D\	.	4c\	.	4f\	.	.	4ff\	.
4E/	.	.	4E\	.	4B-\	.	4g\	.	.	8ee-X\L	.
.	.	.	.	.	.	.	.	.	.	8dd\J	.
=135	=135	=135	=135	=135	=135	=135	=135	=135	=135	=135	=135
1F	.	.	1F	.	4.A\	a-	4.a\	.	.	1cc	.
.	.	.	.	.	8B-\	.	8g\	.	.	.	.
.	.	.	.	.	4c\	.	4f\	.	.	.	.
.	.	.	.	.	4A\	.	4a\	.	.	.	.
2F,\	.	-men	2F,\	-men	4c\	.	4g\	.	.	2cc\	-men
.	.	.	.	.	4d\	.	4f\	.	.	.	.
=136	=136	=136	=136	=136	=136	=136	=136	=136	=136	=136	=136
*	*	*	*	*	*	*	*	*	*	*	*ij
4.C/	.	a-	4.C/	a-	2.e-X\	.	4.e-X\	.	.	1cc	A-
8D\	.	.	8D/	.	.	.	8f\	.	.	.	.
4E-X\	.	.	4E-X\	.	.	.	4g\	.	.	.	.
4C/	.	.	4C\	.	4d#X\	.	4e-\	.	.	.	.
4E-\	.	.	4E-\	.	2c\	.	4g\	.	.	2cc\	-men
4F\	.	.	4F\	.	.	.	4a\	.	.	.	.
*	*	*	*	*	*	*	*	*	*	*	*Xij
=137	=137	=137	=137	=137	=137	=137	=137	=137	=137	=137	=137
1G	.	.	1G	.	1B-	.	4.b-\	.	.	1b-X	a-
.	.	.	.	.	.	.	8a\	.	.	.	.
.	.	.	.	.	.	.	4g\	.	.	.	.
.	.	.	.	.	.	.	4b-\	.	.	.	.
2G,\	.	-men	2G,\	-men	2B-\	-men	4a\	.	.	2b-\	-men
.	.	.	.	.	.	.	4g\	.	.	.	.
*	*	*	*	*	*custos:F	*	*	*	*	*	*
!	!	!	!	!	!LO:LB:g=original	!	!LO:LB:g=original	!	!	!	!
=138	=138	=138	=138	=138	=138	=138	=138	=138	=138	=138	=138
*	*	*ij	*	*ij	*	*	*	*	*	*	*ij
1D	.	a-	1D	a-	4.F/	a-	(4f\	.	.	1a	a-
.	.	.	.	.	.	.	4e\	.	.	.	.
.	.	.	.	.	8G/	.	.	.	.	.	.
.	.	.	.	.	4A/	.	4f\	.	.	.	.
.	.	.	.	.	4F/	.	4g\)	.	.	.	.
2D,/	.	-men	2D,/	-men	4A/	.	2a,\	-men	.	2dd\	-men
.	.	.	.	.	4B-/	.	.	.	.	.	.
*	*	*Xij	*	*Xij	*	*	*	*	*	*	*Xij
=139	=139	=139	=139	=139	=139	=139	=139	=139	=139	=139	=139
2E-X\	.	a-	2E-X\	a-	4c\	.	(2g\	a-	.	1.ccT	a-
.	.	.	.	.	4B-\	.	.	.	.	.	.
2F\	.	.	1F	.	2B-\	.	2.f\)	.	.	.	.
2FF/	.	.	.	.	2A\	.	.	.	.	.	.
.	.	.	.	.	.	.	4e-X\	.	.	.	.
=140	=140	=140	=140	=140	=140	=140	=140	=140	=140	=140	=140
1.BB-	.	-men.	1.BB-	-men.	1.B-	-men	4.d\	.	.	1.dd,	-men
.	.	.	.	.	.	.	8e\	.	.	.	.
.	.	.	.	.	.	.	4f\	.	.	.	.
.	.	.	.	.	.	.	4d\	.	.	.	.
.	.	.	.	.	.	.	4c\	.	.	.	.
.	.	.	.	.	.	.	4B-\	.	.	.	.
!LO:LB:g=original	!	!	!LO:LB:g=original	!	!	!	!	!	!	!	!
=141	=141	=141	=141	=141	=141	=141	=141	=141	=141	=141	=141
*	*	*	*	*	*	*	*	*	*	*	*ij
4.F\	.	a-	4.F\	a-	4.A\	a-	1c	.	.	1cc	a-
8G\	.	.	8G\	.	8B-\	.	.	.	.	.	.
4An\	.	.	4An\	.	4c\	.	.	.	.	.	.
4F\	.	.	4F\	.	4A/	.	.	.	.	.	.
4E-X\	.	.	4E-X\	.	4G/	.	2c,/	-men	.	2cc\	-men
4D\	.	.	4D\	.	4F/	.	.	.	.	.	.
*	*	*	*	*	*	*	*	*	*	*	*Xij
=142	=142	=142	=142	=142	=142	=142	=142	=142	=142	=142	=142
1C	.	.	1C	.	1G	.	4.e-X\	a-	.	4.cc\	a-
.	.	.	.	.	.	.	8f\	.	.	8dd\	.
.	.	.	.	.	.	.	4g\	.	.	4ee\	.
.	.	.	.	.	.	.	4e-\	.	.	4cc\	.
2C,/	.	-men	2C,/	-men	2G/	-men	4d\	.	.	4b-\	.
.	.	.	.	.	.	.	4c\	.	.	4a\	.
=143	=143	=143	=143	=143	=143	=143	=143	=143	=143	=143	=143
4.G\	.	a-	4.G\	a-	4.B-\	a-	1d	.	.	1b-	.
8A\	.	.	8A\	.	8c\	.	.	.	.	.	.
4B-\	.	.	4B-\	.	4d\	.	.	.	.	.	.
4G\	.	.	4G\	.	4B-\	.	.	.	.	.	.
4F\	.	.	4F\	.	4A\	.	2d\	-men	.	2b-\	-men
4E\	.	.	4E\	.	4G\	.	.	.	.	.	.
!	!	!	!	!	!	!	!	!	!	!LO:LB:g=original	!
=144	=144	=144	=144	=144	=144	=144	=144	=144	=144	=144	=144
*	*	*	*	*	*	*	*	*	*	*	*ij
[1.D	.	.	[1.D	.	1A	.	4.d\	a-	.	1a	a-
.	.	.	.	.	.	.	8e\	.	.	.	.
.	.	.	.	.	.	.	4f\	.	.	.	.
.	.	.	.	.	.	.	4d\	.	.	.	.
.	.	.	.	.	2G/	-men	4f\	.	.	2b-\	-men
.	.	.	.	.	.	.	4g\	.	.	.	.
*	*	*	*	*	*	*	*	*	*	*	*Xij
=145	=145	=145	=145	=145	=145	=145	=145	=145	=145	=145	=145
1.D_	.	.	1.D_	.	1F#X	a-	1an	.	.	1a	a-
.	.	.	.	.	4B-\	.	[2g\	.	.	[2b-\	.
.	.	.	.	.	4c\	.	.	.	.	.	.
=146	=146	=146	=146	=146	=146	=146	=146	=146	=146	=146	=146
1.D]	.	.	1.D]	.	1.d	.	2g\]	.	.	2b-\]	.
.	.	.	.	.	.	.	4.f#X\	.	.	1at	.
.	.	.	.	.	.	.	8eT\	.	.	.	.
.	.	.	.	.	.	.	2f#\	.	.	.	.
=147	=147	=147	=147	=147	=147	=147	=147	=147	=147	=147	=147
0.GG;	.	-men.	0.GG	-men.	0.d;	-men.	0.g;	-men.	.	0.bn	-men.
!	!	!	!	!	!	!	!	!	!	!LO:TX:b:t=O. ad M X N.G.	!
==	==	==	==	==	==	==	==	==	==	==	==
*-	*-	*-	*-	*-	*-	*-	*-	*-	*-	*-	*-
!!!system-decoration: [(s1,s2,s3,s4)]s5
!!!ENC: Berenika Jozajtis
!!!END: 2024-06-11
!!!ENC: Leszek Kubiak
!!!END: 2024-06-23
